assets/spraw/zhp_harc_sim_2022/pasje_i_specjalnosci/pocztowiec.svg

<?xml version="1.0" encoding="UTF-8" standalone="no"?>
<svg
   xmlns:dc="http://purl.org/dc/elements/1.1/"
   xmlns:cc="http://creativecommons.org/ns#"
   xmlns:rdf="http://www.w3.org/1999/02/22-rdf-syntax-ns#"
   xmlns:svg="http://www.w3.org/2000/svg"
   xmlns="http://www.w3.org/2000/svg"
   xmlns:sodipodi="http://sodipodi.sourceforge.net/DTD/sodipodi-0.dtd"
   xmlns:inkscape="http://www.inkscape.org/namespaces/inkscape"
   inkscape:version="1.0 (4035a4fb49, 2020-05-01)"
   sodipodi:docname="sprawnosci-h_Pocztowiec.svg"
   id="svg26"
   xml:space="preserve"
   style="enable-background:new 0 0 90.709 90.709;"
   viewBox="0 0 90.709 90.709"
   y="0px"
   x="0px"
   version="1.1"><metadata
   id="metadata32"><rdf:RDF><cc:Work
       rdf:about=""><dc:format>image/svg+xml</dc:format><dc:type
         rdf:resource="http://purl.org/dc/dcmitype/StillImage" /><dc:title></dc:title></cc:Work></rdf:RDF></metadata><defs
   id="defs30"><clipPath
     id="clipPath50"
     clipPathUnits="userSpaceOnUse"><circle
       r="71.826721"
       cy="45.909863"
       cx="197.70859"
       id="circle52"
       style="fill:#f15a38;fill-rule:evenodd;stroke:none;stroke-width:19.3805;stroke-linecap:round;stop-color:#000000" /></clipPath><clipPath
     id="clipPath1011"
     clipPathUnits="userSpaceOnUse"><circle
       style="opacity:0.5;fill:#f15a38;fill-rule:evenodd;stroke:none;stroke-width:47.6107;stroke-linecap:round;stop-color:#000000"
       id="circle1013"
       cx="385.84714"
       cy="59.05611"
       r="101.44066" /></clipPath><clipPath
     id="clipPath1081"
     clipPathUnits="userSpaceOnUse"><circle
       style="opacity:0.5;fill:#f15a38;fill-rule:evenodd;stroke:none;stroke-width:102.222;stroke-linecap:round;stop-color:#000000"
       id="circle1083"
       cx="-592.00348"
       cy="126.60494"
       r="217.79622" /></clipPath><clipPath
     id="clipPath1277"
     clipPathUnits="userSpaceOnUse"><circle
       style="opacity:0.5;fill:#f15a38;fill-rule:evenodd;stroke:none;stroke-width:78.1231;stroke-linecap:round;stop-color:#000000"
       id="circle1279"
       cx="326.76178"
       cy="-601.58362"
       r="166.45103" /></clipPath><clipPath
     id="clipPath1281"
     clipPathUnits="userSpaceOnUse"><circle
       style="opacity:0.5;fill:#f15a38;fill-rule:evenodd;stroke:none;stroke-width:94.1746;stroke-linecap:round;stop-color:#000000"
       id="circle1283"
       cx="441.13412"
       cy="-232.99599"
       r="200.651" /></clipPath><clipPath
     id="clipPath1285"
     clipPathUnits="userSpaceOnUse"><circle
       style="opacity:0.5;fill:#f15a38;fill-rule:evenodd;stroke:none;stroke-width:86.4305;stroke-linecap:round;stop-color:#000000"
       id="circle1287"
       cx="-556.18292"
       cy="-359.95541"
       r="184.151" /></clipPath><clipPath
     id="clipPath1289"
     clipPathUnits="userSpaceOnUse"><circle
       style="opacity:0.5;fill:#f15a38;fill-rule:evenodd;stroke:none;stroke-width:81.5288;stroke-linecap:round;stop-color:#000000"
       id="circle1291"
       cx="-589.78162"
       cy="-999.40125"
       r="173.70735" /></clipPath></defs><sodipodi:namedview
   inkscape:snap-global="false"
   inkscape:current-layer="svg26"
   inkscape:cy="57.705148"
   inkscape:cx="43.563207"
   inkscape:zoom="5.6568543"
   showgrid="false"
   id="namedview28"
   inkscape:window-height="480"
   inkscape:window-width="640"
   inkscape:pageshadow="2"
   inkscape:pageopacity="0"
   guidetolerance="10"
   gridtolerance="10"
   objecttolerance="10"
   borderopacity="1"
   bordercolor="#666666"
   pagecolor="#ffffff" />
<g
   id="ratownik-1">
	<g
   id="g10">
		<g
   id="g8">
			
				<ellipse
   id="ellipse2"
   ry="43.52"
   rx="43.52"
   cy="45.355"
   cx="45.354"
   style="fill:#194093;"
   transform="matrix(0.7071 -0.7071 0.7071 0.7071 -18.7867 45.3541)" />
			<g
   id="g6">
				<path
   id="path4"
   d="M45.354,2.835c23.483,0,42.52,19.037,42.52,42.52c0,23.483-19.037,42.52-42.52,42.52      c-23.483,0-42.52-19.037-42.52-42.52C2.835,21.871,21.871,2.835,45.354,2.835 M45.354,0.835c-24.548,0-44.52,19.972-44.52,44.52      s19.972,44.52,44.52,44.52s44.52-19.972,44.52-44.52S69.902,0.835,45.354,0.835L45.354,0.835z"
   style="fill:#252E78;" />
			</g>
		</g>
	</g>
</g>

<path
   d="M 30.033203 20.59375 L 50.833984 37.003906 L 71.634766 20.59375 L 30.033203 20.59375 z M 25.042969 21.751953 C 24.969519 21.947756 24.925781 22.156834 24.925781 22.378906 L 24.925781 41.498047 L 29.345703 41.498047 C 31.03507 41.498047 32.394531 42.857508 32.394531 44.546875 C 32.394531 46.236242 31.027944 47.442654 29.345703 47.597656 C 28.716309 47.655649 28.591363 50.951919 29.738281 53.644531 L 47.603516 39.550781 L 25.042969 21.751953 z M 76.164062 22.115234 L 54.0625 39.550781 L 72.585938 54.166016 C 73.795261 52.213201 74.769894 50.076562 75.462891 47.792969 C 74.499718 47.541194 73.888738 46.591147 74.085938 45.601562 C 74.282799 44.613672 75.207255 43.971698 76.191406 44.105469 L 76.191406 22.378906 C 76.191406 22.28819 76.176993 22.202241 76.164062 22.115234 z M 50.832031 42.099609 L 49.697266 42.994141 A 14.046395 14.046395 0 0 1 50.503906 42.970703 A 14.046395 14.046395 0 0 1 50.507812 42.970703 A 14.046395 14.046395 0 0 1 52.042969 43.054688 L 50.832031 42.099609 z M 50.396484 48.185547 A 8.4116383 8.4116383 0 0 0 42.029297 56.597656 A 8.4116383 8.4116383 0 0 0 42.462891 59.263672 L 58.419922 59.263672 A 8.4116383 8.4116383 0 0 0 58.853516 56.597656 A 8.4116383 8.4116383 0 0 0 50.441406 48.185547 A 8.4116383 8.4116383 0 0 0 50.398438 48.185547 A 8.4116383 8.4116383 0 0 1 50.396484 48.185547 z M 63.730469 52.275391 A 14.046395 14.046395 0 0 1 64.554688 57.017578 A 14.046395 14.046395 0 0 1 64.373047 59.263672 L 68.435547 59.263672 C 69.061264 58.673794 69.657046 58.050821 70.220703 57.396484 L 63.730469 52.275391 z M 37.058594 52.964844 L 31.933594 57.007812 C 32.588979 57.811307 33.296824 58.562168 34.050781 59.263672 L 36.642578 59.263672 A 14.046395 14.046395 0 0 1 36.460938 57.017578 A 14.046395 14.046395 0 0 1 37.058594 52.964844 z "
   style="opacity:1;fill:#ffffff;fill-opacity:1;fill-rule:evenodd;stroke:none;stroke-width:2.5;stroke-linecap:round;stroke-linejoin:round;stroke-miterlimit:4;stroke-dasharray:none;stop-color:#000000"
   id="rect1293" /><path
   sodipodi:nodetypes="ssscscsccscccssccsssssssccccs"
   d="m 8.8164062,41.498047 c -1.6893666,0 -3.0488281,1.359461 -3.0488281,3.048828 0,1.689367 1.3655728,3.194349 3.0488281,3.050781 2.7127118,-0.231372 3.1329028,7.848929 7.2832028,14.541016 4.140913,8.102496 16.143038,16.504634 29.212891,16.548828 17.552828,0.05935 31.978432,-13.125551 33.832031,-30.164062 0.969192,0.11108 1.872209,-0.525482 2.066407,-1.5 0.204697,-1.027209 -0.457167,-2.019912 -1.484376,-2.22461 l -3.417968,-0.68164 c -1.02721,-0.204698 -2.017959,0.457166 -2.222656,1.484374 -0.1972,0.989584 0.41378,1.939632 1.376953,2.191407 -2.02447,6.671128 -6.400364,12.120323 -12.261719,15.240234 0.891154,-1.88021 1.353463,-3.934918 1.353516,-6.015625 2.65e-4,-7.757985 -6.288891,-14.047141 -14.046876,-14.046875 h -0.0039 c -7.756459,0.0019 -14.043233,6.290416 -14.042968,14.046875 1.11e-4,1.631069 0.284306,3.249656 0.839843,4.783203 -2.794887,-1.808461 -5.19206,-4.173693 -6.990234,-7.048828 -1.745283,-2.790566 -1.684303,-7.088006 -0.964844,-7.154297 1.682241,-0.155002 3.048828,-1.361414 3.048828,-3.050781 0,-1.689367 -1.359461,-3.048828 -3.048828,-3.048828 z m 41.5800778,6.6875 h 0.002 c 0.01432,-3.7e-5 0.02865,-3.7e-5 0.04297,0 4.645988,-2.61e-4 8.41237,3.766121 8.41211,8.412109 2.61e-4,4.645988 -3.766122,8.412371 -8.41211,8.41211 -4.645988,2.6e-4 -8.41237,-3.766122 -8.412109,-8.41211 -3.24e-4,-4.628499 3.738753,-8.38765 8.367187,-8.412109 z"
   style="opacity:1;fill:#efac1f;fill-opacity:1;fill-rule:evenodd;stroke:none;stroke-width:3.8448;stroke-linecap:round;stroke-linejoin:round;stroke-miterlimit:4;stroke-dasharray:none;stop-color:#000000"
   id="path1310" /></svg>

<svg xmlns="http://www.w3.org/2000/svg" viewBox="0 0 90.709 90.709"><circle cy="45.355" cx="45.354" transform="matrix(.7071 -.7071 .7071 .7071 -18.7867 45.3541)" r="43.52" fill="#194093"/><path d="M45.354 2.835c23.483 0 42.52 19.037 42.52 42.52s-19.037 42.52-42.52 42.52-42.52-19.037-42.52-42.52 19.037-42.52 42.52-42.52m0-2C20.806.835.834 20.807.834 45.355s19.972 44.52 44.52 44.52 44.52-19.972 44.52-44.52S69.902.835 45.354.835h0z" fill="#252e78"/><g fill-rule="evenodd"><path d="M30.033 20.594l20.801 16.41 20.801-16.41H30.033zm-4.99 1.158c-.073.196-.117.405-.117.627v19.119h4.42a3.04 3.04 0 0 1 3.049 3.049c0 1.689-1.367 2.896-3.049 3.051-.629.058-.754 3.354.393 6.047l17.865-14.094-22.561-17.799zm51.121.363L54.063 39.551l18.523 14.615c1.209-1.953 2.184-4.089 2.877-6.373a1.88 1.88 0 0 1-1.377-2.191 1.88 1.88 0 0 1 2.105-1.496V22.379c0-.091-.014-.177-.027-.264zM50.832 42.1l-1.135.895a14.046 14.046 0 0 1 .811-.023 14.046 14.046 0 0 1 1.535.084l-1.211-.955zm-.436 6.086a8.412 8.412 0 0 0-7.934 11.078H58.42a8.412 8.412 0 0 0-7.979-11.078 8.412 8.412 0 0 0-.043 0 8.412 8.412 0 0 1-.002 0zm13.334 4.09a14.046 14.046 0 0 1 .643 6.988h4.063a24.9 24.9 0 0 0 1.785-1.867l-6.49-5.121zm-26.672.689l-5.125 4.043c.655.803 1.363 1.554 2.117 2.256h2.592a14.046 14.046 0 0 1 .416-6.299z" fill="#fff"/><path d="M8.816 41.498a3.04 3.04 0 0 0-3.049 3.049c0 1.689 1.366 3.194 3.049 3.051 2.713-.231 3.133 7.849 7.283 14.541 4.141 8.102 16.143 16.505 29.213 16.549 17.553.059 31.978-13.126 33.832-30.164a1.88 1.88 0 0 0 2.066-1.5c.205-1.027-.457-2.02-1.484-2.225l-3.418-.682c-1.027-.205-2.018.457-2.223 1.484a1.88 1.88 0 0 0 1.377 2.191c-2.024 6.671-6.4 12.12-12.262 15.24.891-1.88 1.353-3.935 1.354-6.016a14.05 14.05 0 0 0-14.047-14.047h-.004a14.05 14.05 0 0 0-14.043 14.047c0 1.631.284 3.25.84 4.783-2.795-1.808-5.192-4.174-6.99-7.049-1.745-2.791-1.684-7.088-.965-7.154 1.682-.155 3.049-1.361 3.049-3.051a3.04 3.04 0 0 0-3.049-3.049zm41.58 6.688h.002.043c4.646 0 8.412 3.766 8.412 8.412s-3.766 8.412-8.412 8.412-8.412-3.766-8.412-8.412c0-4.628 3.739-8.388 8.367-8.412z" fill="#efac1f"/></g></svg>
